scalable/apps/simple-scan.svg

<?xml version="1.0" encoding="UTF-8" standalone="no"?>
<!-- Generator: Adobe Illustrator 19.0.0, SVG Export Plug-In . SVG Version: 6.00 Build 0)  -->

<svg
   xmlns:dc="http://purl.org/dc/elements/1.1/"
   xmlns:cc="http://creativecommons.org/ns#"
   xmlns:rdf="http://www.w3.org/1999/02/22-rdf-syntax-ns#"
   xmlns:svg="http://www.w3.org/2000/svg"
   xmlns="http://www.w3.org/2000/svg"
   xmlns:xlink="http://www.w3.org/1999/xlink"
   xmlns:sodipodi="http://sodipodi.sourceforge.net/DTD/sodipodi-0.dtd"
   xmlns:inkscape="http://www.inkscape.org/namespaces/inkscape"
   version="1.1"
   id="Capa_1"
   x="0px"
   y="0px"
   viewBox="0 0 48 48"
   xml:space="preserve"
   sodipodi:docname="simple-scan.svg"
   width="48"
   height="48"
   inkscape:version="0.92.3 (2405546, 2018-03-11)"><metadata
   id="metadata41"><rdf:RDF><cc:Work
       rdf:about=""><dc:format>image/svg+xml</dc:format><dc:type
         rdf:resource="http://purl.org/dc/dcmitype/StillImage" /><dc:title /></cc:Work></rdf:RDF></metadata><defs
   id="defs39"><linearGradient
     id="linearGradient1002"
     inkscape:collect="always"><stop
       id="stop998"
       offset="0"
       style="stop-color:#f9ffff;stop-opacity:1" /><stop
       id="stop1000"
       offset="1"
       style="stop-color:#535353;stop-opacity:1" /></linearGradient><linearGradient
     inkscape:collect="always"
     id="linearGradient876"><stop
       style="stop-color:#000000;stop-opacity:1;"
       offset="0"
       id="stop872" /><stop
       style="stop-color:#000000;stop-opacity:0;"
       offset="1"
       id="stop874" /></linearGradient><linearGradient
     inkscape:collect="always"
     xlink:href="#linearGradient876"
     id="linearGradient878"
     x1="10.071289"
     y1="8.8164062"
     x2="43.670715"
     y2="41.406712"
     gradientUnits="userSpaceOnUse" /><filter
     inkscape:collect="always"
     style="color-interpolation-filters:sRGB"
     id="filter986"
     x="-2.1531757"
     width="5.3063514"
     y="-0.093925987"
     height="1.187852"><feGaussianBlur
       inkscape:collect="always"
       stdDeviation="0.67550612"
       id="feGaussianBlur988" /></filter><linearGradient
     inkscape:collect="always"
     xlink:href="#linearGradient1002"
     id="linearGradient996"
     x1="9.9892578"
     y1="18.536133"
     x2="72.352043"
     y2="19.46785"
     gradientUnits="userSpaceOnUse" /></defs><sodipodi:namedview
   pagecolor="#ffffff"
   bordercolor="#666666"
   borderopacity="1"
   objecttolerance="10"
   gridtolerance="10"
   guidetolerance="10"
   inkscape:pageopacity="0"
   inkscape:pageshadow="2"
   inkscape:window-width="1366"
   inkscape:window-height="719"
   id="namedview37"
   showgrid="false"
   showguides="true"
   inkscape:guide-bbox="true"
   inkscape:zoom="1.8782524"
   inkscape:cx="24"
   inkscape:cy="24"
   inkscape:window-x="0"
   inkscape:window-y="25"
   inkscape:window-maximized="1"
   inkscape:current-layer="Capa_1" />


<g
   id="g6"
   transform="translate(0,-464)">
</g>
<g
   id="g8"
   transform="translate(0,-464)">
</g>
<g
   id="g10"
   transform="translate(0,-464)">
</g>
<g
   id="g12"
   transform="translate(0,-464)">
</g>
<g
   id="g14"
   transform="translate(0,-464)">
</g>
<g
   id="g16"
   transform="translate(0,-464)">
</g>
<g
   id="g18"
   transform="translate(0,-464)">
</g>
<g
   id="g20"
   transform="translate(0,-464)">
</g>
<g
   id="g22"
   transform="translate(0,-464)">
</g>
<g
   id="g24"
   transform="translate(0,-464)">
</g>
<g
   id="g26"
   transform="translate(0,-464)">
</g>
<g
   id="g28"
   transform="translate(0,-464)">
</g>
<g
   id="g30"
   transform="translate(0,-464)">
</g>
<g
   id="g32"
   transform="translate(0,-464)">
</g>
<g
   id="g34"
   transform="translate(0,-464)">
</g>
<g
   id="g858"><path
     id="path846"
     d="m 24.000976,0.3457035 c -5.833461,0 -10.522198,1.1203776 -13.935546,3.3320313 -4.1011933,2.6574037 -6.2695315,6.9015122 -6.2695315,12.2714832 0,7.226706 5.8062658,16.88549 7.5859375,19.673828 2.031747,3.183082 4.250107,6.079783 6.246093,8.15625 2.542362,2.644284 4.56815,3.875 6.373047,3.875 1.804991,0 3.829009,-1.230625 6.371093,-3.875 1.995894,-2.076376 4.214349,-4.973077 6.246094,-8.15625 C 38.397835,32.8348 44.204101,23.175924 44.204101,15.949219 44.204193,10.57934 42.037899,6.3352307 37.936523,3.6777348 34.523359,1.4660811 29.834346,0.3457035 24.000976,0.3457035 Z"
     style="fill:#6f8a91;stroke-width:0.0924025"
     inkscape:connector-curvature="0" /><path
     inkscape:connector-curvature="0"
     id="path852"
     d="m 27.710938,46.03125 c 0.840911,-0.609055 1.68318,-1.235666 2.660156,-2.251953 1.995894,-2.076377 4.214348,-4.973078 6.246094,-8.15625 0.889835,-1.394123 2.786911,-4.505287 4.460937,-8.171875 0.837013,-1.833294 1.619261,-3.806143 2.191406,-5.771484 0.572145,-1.965342 0.933594,-3.923793 0.933594,-5.730469 5e-6,-0.291235 -0.07519,-0.541633 -0.08789,-0.826172 L 37.451172,8.5644531 33.693359,25.693359 9.990234,28.308594 Z"
     style="fill:url(#linearGradient878);fill-opacity:1;stroke:none;stroke-width:1px;stroke-linecap:butt;stroke-linejoin:miter;stroke-opacity:1" /><path
     id="path844"
     d="m 27.706054,6.3886723 9.746094,2.1757812 0.160156,-0.00195 V 28.394531 h -0.0098 v 0.08203 L 27.70602,30.683593 V 28.363281 L 9.9892579,28.308593 10.071289,8.8164067 27.706054,8.6542973 Z"
     style="fill:url(#linearGradient996);fill-opacity:1;stroke-width:0.0924025"
     inkscape:connector-curvature="0" /><path
     id="path2"
     d="M 27.706054,9.7871098 11.34668,9.9316409 11.27051,27.164062 l 16.435547,0.04883 z"
     style="fill:#333333;stroke-width:0.0924025"
     inkscape:connector-curvature="0" /><rect
     ry="0"
     y="9.8662052"
     x="19.200001"
     height="17.260555"
     width="0.75294119"
     id="rect894"
     style="opacity:0.65;fill:#ffffff;fill-opacity:1;stroke:none;stroke-width:0.97227919;stroke-opacity:1;filter:url(#filter986)" /><rect
     ry="0"
     y="9.8662043"
     x="19.200001"
     height="17.260555"
     width="0.75294119"
     id="rect894-7"
     style="opacity:0.65;fill:#ffffff;fill-opacity:1;stroke:none;stroke-width:0.97227919;stroke-opacity:1" /><path
     inkscape:connector-curvature="0"
     id="path4588"
     d="m 24.000977,0.3457035 c -5.833461,0 -10.522199,1.1203783 -13.935547,3.3320313 -4.101193,2.657404 -6.269532,6.9015122 -6.269532,12.2714832 0,7.226706 5.806266,16.88549 7.585938,19.673828 2.031747,3.183082 4.250107,6.079783 6.246094,8.15625 2.542362,2.644284 4.56815,3.875 6.373047,3.875 1.804991,0 3.829009,-1.230625 6.371093,-3.875 1.995894,-2.076376 4.214348,-4.973077 6.246094,-8.15625 C 38.397835,32.8348 44.204102,23.175924 44.204102,15.94922 44.204194,10.57934 42.037898,6.3352309 37.936524,3.6777348 34.52336,1.4660818 29.834346,0.3457035 24.000977,0.3457035 Z m 0,0.14453126 c 2.112445,0.084873 4.119293,0.27168527 5.875,0.69140624 1.164035,0.2782756 2.252954,0.6269196 3.263671,1.0429688 1.010718,0.4160492 1.943585,0.9002116 2.796876,1.453125 1.025343,0.6643739 1.929139,1.4277032 2.708984,2.2832031 0.779844,0.8554999 1.435774,1.803713 1.96289,2.8359375 0.527119,1.0322245 0.926199,2.1492026 1.19336,3.3437496 0.267161,1.194547 0.402367,2.466124 0.402344,3.808593 0,1.806677 -0.363402,3.765127 -0.935547,5.730469 -0.572145,1.965342 -1.352441,3.93819 -2.189453,5.771484 -1.674026,3.66659 -3.571102,6.777752 -4.460938,8.171875 -2.031746,3.183173 -4.2502,6.079876 -6.246094,8.15625 -1.271042,1.322188 -2.413501,2.291486 -3.46289,2.929688 -0.319034,0.194026 -0.618451,0.306539 -0.910156,0.390625 -0.291517,-0.08404 -0.58956,-0.196919 -0.908204,-0.390625 -1.049854,-0.638215 -2.191709,-1.607546 -3.46289,-2.929688 -1.995987,-2.076467 -4.214347,-4.973168 -6.246094,-8.15625 C 12.492,34.228877 10.594924,31.117748 8.920898,27.451171 8.083886,25.617883 7.30359,23.645021 6.731445,21.679687 6.159301,19.714353 5.795899,17.755895 5.795898,15.949218 c 0,-1.342492 0.134981,-2.614034 0.402344,-3.808593 C 6.465605,10.946066 6.866188,9.8291 7.393555,8.7968754 7.920922,7.7646508 8.576433,6.8164264 9.356445,5.9609379 10.136457,5.1054494 11.040132,4.3420858 12.06543,3.6777348 c 0.853337,-0.5529133 1.786156,-1.0370759 2.796875,-1.453125 1.010719,-0.4160492 2.099654,-0.7646932 3.263672,-1.0429688 1.755679,-0.41972098 3.762539,-0.60653321 5.875,-0.69140624 z"
     style="opacity:0.2;fill:#000000;stroke-width:0.0924025" /></g></svg>

<svg xmlns="http://www.w3.org/2000/svg" xmlns:xlink="http://www.w3.org/1999/xlink" width="48" height="48"><defs><linearGradient id="b"><stop offset="0" stop-color="#f9ffff"/><stop offset="1" stop-color="#535353"/></linearGradient><linearGradient id="a"><stop offset="0"/><stop offset="1" stop-opacity="0"/></linearGradient><linearGradient xlink:href="#a" id="c" x1="10.07" y1="8.82" x2="43.67" y2="41.41" gradientUnits="userSpaceOnUse"/><filter id="e" x="-2.15" width="5.31" y="-.09" height="1.19" color-interpolation-filters="sRGB"><feGaussianBlur stdDeviation=".68"/></filter><linearGradient xlink:href="#b" id="d" x1="9.99" y1="18.54" x2="72.35" y2="19.47" gradientUnits="userSpaceOnUse"/></defs><path d="M24 .35c-5.83 0-10.52 1.12-13.93 3.33-4.1 2.66-6.27 6.9-6.27 12.27 0 7.23 5.8 16.88 7.58 19.67a54.48 54.48 0 0 0 6.25 8.16c2.54 2.64 4.57 3.87 6.37 3.87 1.8 0 3.83-1.23 6.37-3.87 2-2.08 4.22-4.97 6.25-8.16 1.78-2.79 7.58-12.44 7.58-19.67 0-5.37-2.16-9.61-6.26-12.27C34.52 1.47 29.84.35 24 .35z" fill="#6f8a91"/><path d="M27.71 46.03a18.1 18.1 0 0 0 2.66-2.25c2-2.08 4.22-4.97 6.25-8.16.89-1.4 2.78-4.5 4.46-8.17a43.2 43.2 0 0 0 2.19-5.77c.57-1.97.93-3.92.93-5.73 0-.3-.07-.54-.08-.83l-6.67-6.56L33.7 25.7 10 28.31z" fill="url(#c)"/><path d="M27.7 6.39l9.75 2.17h.16V28.48l-9.9 2.2v-2.32l-17.72-.05.08-19.5 17.64-.16z" fill="url(#d)"/><path d="M27.7 9.79l-16.35.14-.08 17.23 16.44.05z" fill="#333"/><rect ry="0" y="9.87" x="19.2" height="17.26" width=".75" opacity=".65" fill="#fff" filter="url(#e)"/><rect ry="0" y="9.87" x="19.2" height="17.26" width=".75" opacity=".65" fill="#fff"/><path d="M24 .35c-5.83 0-10.52 1.12-13.93 3.33-4.1 2.66-6.27 6.9-6.27 12.27 0 7.23 5.8 16.88 7.58 19.67a54.48 54.48 0 0 0 6.25 8.16c2.54 2.64 4.57 3.87 6.37 3.87 1.8 0 3.83-1.23 6.37-3.87 2-2.08 4.22-4.97 6.25-8.16 1.78-2.79 7.58-12.44 7.58-19.67 0-5.37-2.16-9.61-6.26-12.27C34.52 1.47 29.84.35 24 .35zm0 .14c2.11.09 4.12.27 5.88.7 1.16.27 2.25.62 3.26 1.03 1.01.42 1.94.9 2.8 1.46A12.92 12.92 0 0 1 40.6 8.8c.53 1.03.92 2.15 1.2 3.34.26 1.2.4 2.47.4 3.8 0 1.82-.37 3.77-.94 5.74a43.19 43.19 0 0 1-2.2 5.77 69.59 69.59 0 0 1-4.45 8.17 54.47 54.47 0 0 1-6.25 8.16 17.98 17.98 0 0 1-3.46 2.93c-.32.2-.62.3-.91.39-.3-.08-.6-.2-.9-.4-1.06-.63-2.2-1.6-3.47-2.92-2-2.08-4.22-4.97-6.25-8.16a69.6 69.6 0 0 1-4.46-8.17 43.19 43.19 0 0 1-2.19-5.77 20.93 20.93 0 0 1-.93-5.73c0-1.34.13-2.61.4-3.8.27-1.2.67-2.32 1.2-3.35a12.92 12.92 0 0 1 4.67-5.12 17.1 17.1 0 0 1 2.8-1.46c1-.41 2.1-.76 3.26-1.04C19.88.76 21.89.58 24 .5z" opacity=".2"/></svg>
